icon-themes/breeze_svg/cmd/32/dataimport.svg

<svg viewBox="0 0 32 32" xmlns="http://www.w3.org/2000/svg"><path d="m6 4v24h10v-1h-9v-22h18v17.5h-7.085938l3.792969-3.792969-.707031-.707031-4 4-1 1 1 1 4 4 .707031-.707031-3.792969-3.792969h8.085938v-.5-.5-18.5z" fill="#4d4d4d"/></svg>

<svg xmlns="http://www.w3.org/2000/svg" viewBox="0 0 32 32">
  <path
     style="fill:#4d4d4d"
     d="M 6 4 L 6 28 L 16 28 L 16 27 L 7 27 L 7 5 L 25 5 L 25 22.5 L 17.914062 22.5 L 21.707031 18.707031 L 21 18 L 17 22 L 16 23 L 17 24 L 21 28 L 21.707031 27.292969 L 17.914062 23.5 L 26 23.5 L 26 23 L 26 22.5 L 26 4 L 6 4 z "
	 />
</svg>
